src/css/fonts/SVGs/iota_icons/identity_icon.svg

<svg width="48" height="48" viewBox="0 0 48 48" fill="none" xmlns="http://www.w3.org/2000/svg">
<path d="M12 12.9796C12 12.4386 12.4386 12 12.9796 12H24C26.4655 12 28.76 12.7446 30.6674 14.0213C31.1169 14.3223 31.2374 14.9307 30.9365 15.3803C30.6356 15.8299 30.0271 15.9504 29.5775 15.6494C27.9826 14.5818 26.0655 13.9592 24 13.9592H12.9796C12.4386 13.9592 12 13.5206 12 12.9796Z" fill="black"/>
<path d="M32.1247 16.4903C32.5527 16.1594 33.1679 16.2381 33.4988 16.6661C35.0666 18.694 36 21.2394 36 24C36 28.7659 33.2216 32.881 29.2005 34.8174C28.7131 35.0521 28.1277 34.8472 27.8929 34.3598C27.6582 33.8724 27.8631 33.2869 28.3505 33.0522C31.7193 31.4299 34.0408 27.9851 34.0408 24C34.0408 21.6882 33.2607 19.5613 31.9488 17.8645C31.6179 17.4365 31.6966 16.8212 32.1247 16.4903Z" fill="black"/>
<path d="M12 35.0204C12 34.4794 12.4386 34.0408 12.9796 34.0408H25.4694C26.0104 34.0408 26.449 34.4794 26.449 35.0204C26.449 35.5614 26.0104 36 25.4694 36H12.9796C12.4386 36 12 35.5614 12 35.0204Z" fill="black"/>
<path d="M13.9582 17.3875C13.9582 16.8465 14.3968 16.4079 14.9378 16.4079H23.999C26.5709 16.4079 28.8437 17.6877 30.2155 19.6408C30.5264 20.0835 30.4196 20.6945 29.9768 21.0054C29.5341 21.3164 28.9231 21.2095 28.6122 20.7668C27.5915 19.3136 25.9058 18.3671 23.999 18.3671H14.9378C14.3968 18.3671 13.9582 17.9285 13.9582 17.3875Z" fill="black"/>
<path d="M30.6112 23.0201C31.1523 23.0201 31.5908 23.4587 31.5908 23.9997C31.5908 28.1926 28.1919 31.5916 23.999 31.5916H14.9378C14.3968 31.5916 13.9582 31.153 13.9582 30.612C13.9582 30.0709 14.3968 29.6324 14.9378 29.6324H23.999C27.1098 29.6324 29.6317 27.1105 29.6317 23.9997C29.6317 23.4587 30.0702 23.0201 30.6112 23.0201Z" fill="black"/>
<path d="M16.4082 20.5713C15.8672 20.5713 15.4286 21.0098 15.4286 21.5509C15.4286 22.0919 15.8672 22.5304 16.4082 22.5304H23.5103C24.3218 22.5304 24.9796 23.1883 24.9796 23.9998C24.9796 24.8114 24.3218 25.4692 23.5103 25.4692C22.9692 25.4692 22.5307 25.9078 22.5307 26.4488C22.5307 26.9898 22.9692 27.4284 23.5103 27.4284C25.4038 27.4284 26.9388 25.8934 26.9388 23.9998C26.9388 22.1063 25.4038 20.5713 23.5103 20.5713H16.4082Z" fill="black"/>
<path d="M16.4082 25.4692C15.8672 25.4692 15.4286 25.9078 15.4286 26.4488C15.4286 26.9898 15.8672 27.4284 16.4082 27.4284H19.8368C20.3778 27.4284 20.8164 26.9898 20.8164 26.4488C20.8164 25.9078 20.3778 25.4692 19.8368 25.4692H16.4082Z" fill="black"/>
</svg>

<svg xmlns="http://www.w3.org/2000/svg" viewBox="0 0 48 48">
  <path d="M12 12.98a.98.98 0 0 1 .98-.98H24c2.465 0 4.76.745 6.667 2.021a.98.98 0 0 1-1.09 1.628A9.99 9.99 0 0 0 24 13.96H12.98a.98.98 0 0 1-.98-.98Zm20.125 3.51a.98.98 0 0 1 1.374.176A11.952 11.952 0 0 1 36 24a12 12 0 0 1-6.8 10.817.98.98 0 0 1-.85-1.765A10.042 10.042 0 0 0 34.04 24c0-2.312-.78-4.439-2.091-6.136a.98.98 0 0 1 .176-1.374ZM12 35.02a.98.98 0 0 1 .98-.98h12.49a.98.98 0 0 1 0 1.96H12.98a.98.98 0 0 1-.98-.98Zm1.958-17.633a.98.98 0 0 1 .98-.98h9.061a7.584 7.584 0 0 1 6.216 3.234.98.98 0 1 1-1.603 1.126 5.625 5.625 0 0 0-4.613-2.4h-9.061a.98.98 0 0 1-.98-.98Z"/>
  <path d="M30.611 23.02a.98.98 0 0 1 .98.98 7.592 7.592 0 0 1-7.592 7.592h-9.061a.98.98 0 0 1 0-1.96h9.061A5.633 5.633 0 0 0 29.632 24a.98.98 0 0 1 .98-.98Z"/>
  <path d="M16.408 20.571a.98.98 0 1 0 0 1.96h7.102a1.47 1.47 0 0 1 0 2.938.98.98 0 1 0 0 1.96 3.429 3.429 0 0 0 0-6.858h-7.102Zm0 4.899a.98.98 0 0 0 0 1.958h3.429a.98.98 0 0 0 0-1.959h-3.429Z"/>
</svg>
